X:1
T:Abergele, CM
T:Abergele, CM
T:John Ambrose Lloyd, 1878
T:Public Domain Courtesy of the Cyber Hymnal™
C:John Ambrose Lloyd, 1878
Z:Public Domain
Z:Courtesy of the Cyber Hymnal™
%%score ( 1 2 ) ( 3 4 )
L:1/8
Q:1/4=115
M:3/4
K:Bb
V:1 treble 
V:2 treble 
V:3 bass 
V:4 bass 
V:1
 [DF]2 [EG]2 [FA]2 | [FB]4 [DB]2 | [Fd]4 [Ec]2 | [DB]6 | [DB]2 [DA]2 [DB]2 | [Gc]4 [Gc]2 | %6
 [^Fd]4 [=Fd]2 | (d2 e2) [Fd]2 | [Fd]2 [Ec]2 [DB]2 | (B2 A2) [EG]2 | [DF]4 [DF]2 | [DF]4 [DF]2 | %12
 [EG]4 [EF]2 | [DF]6 |] %14
V:2
 x6 | x6 | x6 | x6 | x6 | x6 | x6 | F4 x2 | x6 | F4 x2 | x6 | x6 | x6 | x6 |] %14
V:3
 [B,,B,]2 [E,B,]2 [E,C]2 | [D,B,]4 [B,,B,]2 | [F,B,]4 [F,A,]2 | [G,B,]6 | G,2 [D,^F,]2 G,2 | %5
 [E,G,]4 [E,G,]2 | [D,A,]4 B,2 | B,2 [A,C]2 B,2 | (B,2 A,2) [G,B,]2 | [D,B,]4 [E,B,]2 | %10
 [B,,B,]4 [B,,B,]2 | [B,,B,]4 [B,,D]2 | [A,,C]4 [A,,C]2 | [B,,B,]6 |] %14
V:4
 x6 | x6 | x6 | x6 | G,2 G,2 x2 | x6 | x4 B,2 | (B,2 B,2) x2 | F,4 x2 | x6 | x6 | x6 | x6 | x6 |] %14

